source/img/svg/icon-business.svg

<svg width="109" height="106" viewBox="0 0 109 106" fill="none" xmlns="http://www.w3.org/2000/svg">
<path d="M102.67 19.0555C103.372 19.75 102.935 21.4993 100.746 23.1184C98.9814 24.4235 96.5701 25.7112 94.0896 26.9274C92.8564 27.5321 91.6009 28.1215 90.394 28.6881L90.3934 28.6884L90.3668 28.7008C89.1503 29.2719 87.9846 29.8194 86.9356 30.3383L86.9236 30.3443L86.9111 30.3493C83.7863 31.6089 79.389 34.1793 76.6832 38.0382C75.3339 39.9624 74.4082 42.2021 74.2628 44.7608C74.1173 47.3191 73.4011 50.0877 81.6132 63.5C81.7604 63.7651 75.307 54.8842 75.296 55.8611L74.5941 53.7778C72.7338 50.4314 73.408 47.4297 73.562 44.7218C73.7159 42.0143 74.6963 39.6534 76.1064 37.6423C78.9157 33.6361 83.442 30.9999 86.6337 29.7113C87.6873 29.1903 88.8556 28.6417 90.0659 28.0734L90.0898 28.0622L90.0899 28.0622C91.2987 27.4947 92.5499 26.9073 93.7779 26.3052C96.2546 25.0908 98.6163 23.8265 100.326 22.5622C101.181 21.9298 100.746 19.3254 102.67 19.0555Z" fill="black"/>
<g filter="url(#filter0_dd)">
<path d="M20.5477 51.6944L5.80762 99.6111H102.671C95.8858 88.2685 82.1752 64.8889 75.9984 53.7777C68.6635 40.5833 80.2099 32.7129 86.5271 30.1666C94.95 26 110.813 20.0278 98.4595 15.5833C86.1059 11.1389 87.229 10.0278 89.3347 9.33331L99.8633 6.55553L89.3347 5.86108C79.742 6.55553 65.3294 8.08331 70.3832 11.4166C76.7004 15.5833 78.1042 15.5833 78.1042 16.9722C78.1042 19.0555 74.4542 20.8611 51.4317 28.0833C28.4091 35.3055 21.2496 46.8333 20.5477 51.6944Z" fill="#3E3E3E"/>
</g>
<path fill-rule="evenodd" clip-rule="evenodd" d="M95.5779 6.21594L96.4096 6.27783L85.9174 8.97426C85.6637 9.05823 85.4415 9.13825 85.2618 9.22243C85.0713 9.31171 84.9667 9.38867 84.9189 9.4472C84.8899 9.48272 84.8875 9.49717 84.9012 9.53766C84.9259 9.61066 85.012 9.74643 85.2503 9.95035C85.7214 10.3536 86.6408 10.9021 88.2309 11.6593C89.8126 12.4125 92.0318 13.3601 95.0799 14.5664C96.4143 15.0945 97.389 15.6445 98.0397 16.2228C98.6947 16.805 99.0421 17.4362 99.0622 18.1121C99.0821 18.7795 98.7802 19.4173 98.2954 20.0136C97.8098 20.611 97.1167 21.1969 96.2922 21.7701C94.643 22.9168 92.4041 24.0559 90.0677 25.1629C89.1364 25.6041 88.1914 26.0395 87.2589 26.4691C85.8377 27.1238 84.9905 27.7711 83.7198 28.3998C80.5761 29.6669 75.6748 32.4272 71.6025 36.6561C69.5695 38.7673 68.2486 41.2389 67.5759 44.0555C67.0783 46.1389 68.2778 50.3055 70.3835 55.8611C71.668 59.25 75.7747 69.0544 79.5083 77.3889C83.4336 86.1513 86.6636 93.9719 90.0369 99.6111H85.1236C82.3159 91.9722 79.6284 85.6269 75.9983 76.6944C72.3773 67.7845 68.8242 58.6402 66.556 53.9269C64.7678 48.9166 64.4939 46.8656 65.2048 43.8888C65.9143 40.9184 67.5997 38.3483 69.6905 36.1771C73.8604 31.8468 79.6964 29.0482 82.8728 27.7667C84.1458 27.1373 85.5529 26.489 86.979 25.8319C87.9101 25.4029 88.8493 24.9702 89.7645 24.5366C92.1 23.43 94.2918 22.3122 95.8887 21.2019C96.6873 20.6467 97.3211 20.1041 97.7485 19.5784C98.1767 19.0517 98.3737 18.5719 98.3606 18.1325C98.3478 17.7016 98.1303 17.2369 97.5706 16.7394C97.0067 16.2381 96.117 15.7248 94.8192 15.2112C91.7649 14.0024 89.529 13.0481 87.9266 12.2851C86.3326 11.5261 85.3387 10.9443 84.7911 10.4756C84.5199 10.2435 84.3202 10.0079 84.2357 9.75827C84.1401 9.47611 84.205 9.21662 84.3727 9.011C84.5217 8.82839 84.7433 8.697 84.9614 8.59481C85.1861 8.48955 85.4486 8.39681 85.7137 8.30939L85.7322 8.30331L95.5779 6.21594Z" fill="#F5F9FF"/>
<path fill-rule="evenodd" clip-rule="evenodd" d="M73.4005 10.2157C73.5594 10.4532 73.9584 10.757 74.7372 11.0994L74.7518 11.1058L74.5946 11.4167C74.7516 11.1061 74.7518 11.1058 74.7518 11.1058L74.7532 11.1069L74.7573 11.109L74.7729 11.1168L74.8329 11.1469C74.8852 11.1733 74.9616 11.2121 75.0585 11.2621C75.2524 11.3621 75.5289 11.5071 75.8605 11.6876C76.5231 12.0481 77.4085 12.5517 78.2955 13.1221C79.1799 13.6909 80.0779 14.3336 80.7587 14.9736C81.099 15.2934 81.3945 15.6213 81.607 15.9472C81.8173 16.2697 81.9647 16.6182 81.9647 16.9723C81.9647 17.6325 81.603 18.2928 80.8084 18.9991C80.0144 19.7049 78.746 20.4956 76.8307 21.4216C72.9962 23.2756 66.4828 25.7124 55.75 29.1085C45.114 33.6389 39.9254 37.1436 35.9892 41.2777C32.0568 45.4078 31.0658 49.652 30.3739 52.3889L21.951 99.5327H16.6963L27.9282 51.6103C28.6404 48.7917 30.1416 44.7015 34.1787 40.4614C38.2134 36.2238 44.7617 31.8564 55.5362 28.4471C66.2652 25.0522 72.7371 22.6279 76.5225 20.7977C78.4171 19.8817 79.6172 19.1244 80.3393 18.4825C81.0609 17.8411 81.2628 17.3537 81.2628 16.9723C81.2628 16.8055 81.1908 16.5898 81.0172 16.3236C80.8459 16.0609 80.593 15.7757 80.2753 15.477C79.6401 14.88 78.7833 14.2641 77.9129 13.7044C77.0451 13.1463 76.1757 12.6516 75.5222 12.296C75.1958 12.1184 74.924 11.9759 74.734 11.8779C74.639 11.8289 74.5646 11.791 74.514 11.7655L74.4566 11.7367L74.4445 11.7307C73.648 11.3796 73.0903 11.0104 72.8151 10.5988C72.67 10.3818 72.597 10.143 72.6233 9.89259C72.6491 9.64677 72.7665 9.42958 72.9278 9.24291C73.2418 8.87979 73.7783 8.56763 74.4305 8.2912C75.0934 8.01023 75.9195 7.74856 76.8554 7.50623C80.5941 6.53818 86.2597 6.1881 90.738 5.86108H91.4399C86.9759 6.18706 80.71 7.22601 77.0331 8.17805C76.1151 8.41575 75.3257 8.66729 74.7069 8.92954C74.0774 9.19634 73.6661 9.45741 73.4612 9.69431C73.3633 9.80766 73.3285 9.89718 73.3215 9.96437C73.3149 10.027 73.3282 10.1075 73.4005 10.2157Z" fill="#F5F9FF"/>
<g clip-path="url(#clip0)">
<ellipse cx="91.4419" cy="3.08333" rx="1.40382" ry="2.08333" fill="url(#paint0_linear)"/>
<path d="M91.4409 1C90.3195 1 89.4072 1.90258 89.4072 3.012C89.4072 4.38882 91.2271 6.41008 91.3046 6.49545C91.3774 6.57565 91.5045 6.57551 91.5771 6.49545C91.6546 6.41008 93.4745 4.38882 93.4745 3.012C93.4745 1.90258 92.5622 1 91.4409 1ZM91.4409 4.02429C90.8767 4.02429 90.4177 3.57018 90.4177 3.012C90.4177 2.45382 90.8767 1.99972 91.4409 1.99972C92.005 1.99972 92.464 2.45383 92.464 3.01201C92.464 3.57019 92.005 4.02429 91.4409 4.02429Z" fill="#F985A0"/>
</g>
<g clip-path="url(#clip1)">
<ellipse cx="16.3352" cy="71.1389" rx="7.72099" ry="7.63889" fill="url(#paint1_linear)"/>
<path d="M17.0373 60.7222C11.4306 60.7222 6.86914 65.2351 6.86914 70.7822C6.86914 77.6663 15.9687 87.7726 16.3561 88.1994C16.72 88.6004 17.3553 88.5997 17.7186 88.1994C18.106 87.7726 27.2055 77.6663 27.2055 70.7822C27.2054 65.2351 22.644 60.7222 17.0373 60.7222ZM17.0373 75.8436C14.2164 75.8436 11.9215 73.5731 11.9215 70.7822C11.9215 67.9913 14.2165 65.7208 17.0373 65.7208C19.8582 65.7208 22.1531 67.9913 22.1531 70.7822C22.1531 73.5731 19.8582 75.8436 17.0373 75.8436Z" fill="#A62E41"/>
</g>
<rect x="5.80762" y="99.6111" width="96.8633" height="1.38889" fill="black"/>
<path d="M49.3269 99.6111L48.625 87.1111H54.9422L56.346 99.6111H49.3269Z" fill="#F5F9FF"/>
<path d="M47.9226 76.6945L47.2207 66.9723H51.4322L52.836 76.6945H47.9226Z" fill="#F5F9FF"/>
<path d="M46.5186 60.0278V53.0834H50.0281L50.73 59.3334L46.5186 60.0278Z" fill="#F5F9FF"/>
<path d="M46.5186 48.2222L47.9224 44.0555H50.73L50.0281 48.2222H46.5186Z" fill="#F5F9FF"/>
<path d="M50.0283 39.8888L53.5379 36.4166H56.3455L53.5379 39.8888H50.0283Z" fill="#F5F9FF"/>
<path d="M57.749 33.6389L61.9605 31.5555H64.0662L59.8547 34.3333L57.749 33.6389Z" fill="#F5F9FF"/>
<path d="M74.5947 26L77.4024 24.6111H79.5081L76.7005 26H74.5947Z" fill="#F5F9FF"/>
<path d="M81.6133 23.2223L84.4209 21.8334H86.5266L83.719 23.2223H81.6133Z" fill="#F5F9FF"/>
<path d="M85.8252 20.4444L88.6328 19.0555H90.7386L87.9309 20.4444H85.8252Z" fill="#F5F9FF"/>
<path d="M89.335 18.3612V16.9723H90.7388V18.3612H89.335Z" fill="#F5F9FF"/>
<path d="M88.6323 16.2778L87.2285 15.5834H88.6323L90.7381 16.2778H88.6323Z" fill="#F5F9FF"/>
<path d="M85.8257 14.1944L84.4219 13.5H85.8257L87.2295 14.1944H85.8257Z" fill="#F5F9FF"/>
<path d="M83.0171 12.8055L81.6133 12.1111H83.0171L84.4209 12.8055H83.0171Z" fill="#F5F9FF"/>
<path d="M80.21 8.6389L81.6138 7.94446H82.3157L81.6138 8.6389H80.21Z" fill="#F5F9FF"/>
<g clip-path="url(#clip2)">
<ellipse cx="72.4895" cy="29.4723" rx="4.91336" ry="4.86111" fill="url(#paint2_linear)"/>
<path d="M71.7869 21.8334C67.3015 21.8334 63.6523 25.4437 63.6523 29.8814C63.6523 35.3887 70.932 43.4737 71.2419 43.8152C71.533 44.136 72.0413 44.1354 72.3319 43.8152C72.6418 43.4737 79.9214 35.3887 79.9214 29.8814C79.9213 25.4437 76.2723 21.8334 71.7869 21.8334ZM71.7869 33.9306C69.5302 33.9306 67.6942 32.1141 67.6942 29.8814C67.6942 27.6487 69.5302 25.8322 71.7869 25.8322C74.0436 25.8322 75.8795 27.6487 75.8795 29.8814C75.8795 32.1141 74.0436 33.9306 71.7869 33.9306Z" fill="#D6516B"/>
</g>
<g clip-path="url(#clip3)">
<ellipse cx="78.8057" cy="9.33332" rx="2.80763" ry="2.77778" fill="url(#paint3_linear)"/>
<path d="M78.8056 5.16663C76.5628 5.16663 74.7383 6.97179 74.7383 9.19063C74.7383 11.9443 78.3781 15.9868 78.5331 16.1575C78.6786 16.3179 78.9328 16.3176 79.078 16.1575C79.233 15.9868 82.8728 11.9443 82.8728 9.19063C82.8728 6.97179 81.0482 5.16663 78.8056 5.16663ZM78.8056 11.2152C77.6772 11.2152 76.7592 10.307 76.7592 9.19063C76.7592 8.07426 77.6772 7.16606 78.8056 7.16606C79.9339 7.16606 80.8519 8.07429 80.8519 9.19065C80.8519 10.307 79.9339 11.2152 78.8056 11.2152Z" fill="url(#paint4_linear)"/>
</g>
<defs>
<filter id="filter0_dd" x="0.807617" y="0.861084" width="108.192" height="104.75" filterUnits="userSpaceOnUse" color-interpolation-filters="sRGB">
<feFlood flood-opacity="0" result="BackgroundImageFix"/>
<feColorMatrix in="SourceAlpha" type="matrix" values="0 0 0 0 0 0 0 0 0 0 0 0 0 0 0 0 0 0 127 0"/>
<feOffset dx="2" dy="2"/>
<feGaussianBlur stdDeviation="2"/>
<feColorMatrix type="matrix" values="0 0 0 0 0 0 0 0 0 0 0 0 0 0 0 0 0 0 0.3 0"/>
<feBlend mode="normal" in2="BackgroundImageFix" result="effect1_dropShadow"/>
<feColorMatrix in="SourceAlpha" type="matrix" values="0 0 0 0 0 0 0 0 0 0 0 0 0 0 0 0 0 0 127 0"/>
<feOffset dx="-1" dy="-1"/>
<feGaussianBlur stdDeviation="2"/>
<feColorMatrix type="matrix" values="0 0 0 0 0 0 0 0 0 0 0 0 0 0 0 0 0 0 0.2 0"/>
<feBlend mode="normal" in2="effect1_dropShadow" result="effect2_dropShadow"/>
<feBlend mode="normal" in="SourceGraphic" in2="effect2_dropShadow" result="shape"/>
</filter>
<linearGradient id="paint0_linear" x1="91.4419" y1="1" x2="91.4419" y2="5.16667" gradientUnits="userSpaceOnUse">
<stop stop-color="#0A3D76"/>
<stop offset="1" stop-color="#0C53A3"/>
</linearGradient>
<linearGradient id="paint1_linear" x1="16.3352" y1="63.5" x2="16.3352" y2="78.7778" gradientUnits="userSpaceOnUse">
<stop stop-color="#0A3D76"/>
<stop offset="1" stop-color="#0C53A3"/>
</linearGradient>
<linearGradient id="paint2_linear" x1="72.4895" y1="24.6112" x2="72.4895" y2="34.3334" gradientUnits="userSpaceOnUse">
<stop stop-color="#0A3D76"/>
<stop offset="1" stop-color="#0C53A3"/>
</linearGradient>
<linearGradient id="paint3_linear" x1="78.8057" y1="6.55554" x2="78.8057" y2="12.1111" gradientUnits="userSpaceOnUse">
<stop stop-color="#0A3D76"/>
<stop offset="1" stop-color="#0C53A3"/>
</linearGradient>
<linearGradient id="paint4_linear" x1="82.6221" y1="10.7222" x2="74.9773" y2="10.602" gradientUnits="userSpaceOnUse">
<stop stop-color="#A62E41"/>
<stop offset="1" stop-color="#E13152"/>
</linearGradient>
<clipPath id="clip0">
<rect width="5.61527" height="5.55556" fill="white" transform="translate(88.6328 1)"/>
</clipPath>
<clipPath id="clip1">
<rect width="28.0763" height="27.7778" fill="white" transform="translate(3 60.7222)"/>
</clipPath>
<clipPath id="clip2">
<rect width="22.4611" height="22.2222" fill="white" transform="translate(60.5566 21.8334)"/>
</clipPath>
<clipPath id="clip3">
<rect width="11.2305" height="11.1111" fill="white" transform="translate(73.1904 5.16663)"/>
</clipPath>
</defs>
</svg>

<svg width="109" height="106" fill="none" xmlns="http://www.w3.org/2000/svg"><path d="M102.67 19.055c.702.695.265 2.444-1.924 4.063-1.765 1.306-4.176 2.593-6.656 3.81-1.234.604-2.49 1.194-3.696 1.76l-.027.013a192.253 192.253 0 00-3.431 1.637l-.012.006-.013.005c-3.125 1.26-7.522 3.83-10.228 7.69-1.35 1.923-2.275 4.163-2.42 6.722-.146 2.558-.862 5.327 7.35 18.739.147.265-6.306-8.616-6.317-7.639l-.702-2.083c-1.86-3.347-1.186-6.348-1.032-9.056.154-2.708 1.134-5.069 2.544-7.08 2.81-4.006 7.336-6.642 10.528-7.93 1.053-.522 2.222-1.07 3.432-1.639l.024-.01a247.11 247.11 0 003.688-1.758c2.477-1.214 4.838-2.479 6.548-3.743.855-.632.42-3.237 2.344-3.507z" fill="#000"/><g filter="url(#filter0_dd)"><path d="M20.548 51.694L5.808 99.611h96.863C95.886 88.268 82.175 64.89 75.998 53.778c-7.335-13.195 4.212-21.065 10.53-23.611 8.422-4.167 24.284-10.14 11.93-14.584-12.353-4.444-11.23-5.555-9.124-6.25l10.528-2.777-10.528-.695c-9.593.695-24.006 2.222-18.952 5.556 6.317 4.166 7.721 4.166 7.721 5.555 0 2.083-3.65 3.89-26.672 11.111-23.023 7.223-30.182 18.75-30.884 23.611z" fill="#3E3E3E"/></g><path fill-rule="evenodd" clip-rule="evenodd" d="M95.578 6.216l.832.062-10.493 2.696a6.177 6.177 0 00-.655.248c-.19.09-.295.167-.343.225-.03.036-.031.05-.018.09.025.074.111.21.35.413.47.404 1.39.952 2.98 1.71 1.582.752 3.8 1.7 6.849 2.906 1.334.528 2.309 1.079 2.96 1.657.655.582 1.002 1.213 1.022 1.89.02.666-.282 1.304-.767 1.9-.485.598-1.178 1.184-2.003 1.757-1.649 1.147-3.888 2.286-6.224 3.393-.932.441-1.877.877-2.81 1.306-1.42.655-2.267 1.302-3.538 1.93-3.144 1.268-8.045 4.028-12.117 8.257-2.033 2.111-3.354 4.583-4.027 7.4-.498 2.083.702 6.25 2.808 11.805 1.284 3.389 5.39 13.193 9.124 21.528 3.926 8.762 7.156 16.583 10.529 22.222h-4.913c-2.808-7.639-5.496-13.984-9.126-22.917-3.62-8.91-7.174-18.054-9.442-22.767-1.788-5.01-2.062-7.061-1.351-10.038.71-2.97 2.395-5.54 4.486-7.712 4.17-4.33 10.005-7.129 13.182-8.41 1.273-.63 2.68-1.278 4.106-1.935.931-.43 1.87-.862 2.785-1.295 2.336-1.107 4.528-2.225 6.125-3.335.798-.555 1.432-1.098 1.86-1.624.428-.526.625-1.006.612-1.445-.013-.431-.23-.896-.79-1.394-.564-.5-1.454-1.014-2.752-1.528-3.054-1.209-5.29-2.163-6.892-2.926-1.594-.759-2.588-1.34-3.136-1.81-.271-.232-.47-.467-.555-.717a.756.756 0 01.137-.747c.149-.183.37-.314.588-.416.225-.105.488-.198.753-.286l.018-.006 9.846-2.087z" fill="#F5F9FF"/><path fill-rule="evenodd" clip-rule="evenodd" d="M73.4 10.216c.16.237.558.541 1.337.883l.015.007-.157.31.157-.31h.001l.004.003.016.008.06.03.225.115c.194.1.47.245.802.426.663.36 1.549.864 2.436 1.434.884.569 1.782 1.212 2.463 1.852.34.32.635.647.848.973.21.323.358.671.358 1.025 0 .66-.362 1.32-1.157 2.027-.794.706-2.062 1.497-3.977 2.423-3.835 1.854-10.348 4.29-21.081 7.686-10.636 4.53-15.825 8.036-19.76 12.17-3.933 4.13-4.924 8.374-5.616 11.11L21.95 99.534h-5.255L27.928 51.61c.712-2.818 2.214-6.908 6.25-11.149 4.035-4.237 10.584-8.605 21.358-12.014 10.73-3.395 17.201-5.82 20.986-7.65 1.895-.915 3.095-1.673 3.817-2.314.722-.642.924-1.13.924-1.51 0-.168-.072-.383-.246-.65a4.873 4.873 0 00-.742-.846c-.635-.597-1.492-1.213-2.362-1.773a38.839 38.839 0 00-3.179-1.826c-.095-.05-.17-.087-.22-.113l-.057-.028-.012-.006c-.797-.351-1.355-.72-1.63-1.132a1.057 1.057 0 01-.192-.706c.026-.246.143-.463.305-.65.314-.363.85-.675 1.502-.952.663-.28 1.49-.542 2.425-.785 3.74-.968 9.405-1.318 13.883-1.645h.702c-4.464.326-10.73 1.365-14.407 2.317-.918.238-1.707.49-2.326.752-.63.266-1.04.527-1.246.764a.508.508 0 00-.14.27c-.006.063.007.143.08.252z" fill="#F5F9FF"/><g clip-path="url(#clip0)"><ellipse cx="91.442" cy="3.083" rx="1.404" ry="2.083" fill="url(#paint0_linear)"/><path d="M91.44 1a2.025 2.025 0 00-2.033 2.012c0 1.377 1.82 3.398 1.898 3.483.072.08.2.08.272 0 .078-.085 1.898-2.106 1.898-3.483 0-1.11-.913-2.012-2.034-2.012zm0 3.024a1.019 1.019 0 01-1.022-1.012c0-.558.459-1.012 1.023-1.012.564 0 1.023.454 1.023 1.012s-.459 1.012-1.023 1.012z" fill="#F985A0"/></g><g clip-path="url(#clip1)"><ellipse cx="16.335" cy="71.139" rx="7.721" ry="7.639" fill="url(#paint1_linear)"/><path d="M17.037 60.722c-5.606 0-10.168 4.513-10.168 10.06 0 6.884 9.1 16.99 9.487 17.417.364.401 1 .4 1.363 0 .387-.426 9.486-10.533 9.486-17.417 0-5.547-4.561-10.06-10.168-10.06zm0 15.122c-2.82 0-5.115-2.27-5.115-5.062 0-2.79 2.294-5.061 5.115-5.061s5.116 2.27 5.116 5.061-2.295 5.062-5.116 5.062z" fill="#A62E41"/></g><path fill="#000" d="M5.808 99.611h96.863V101H5.808z"/><path d="M49.327 99.611l-.702-12.5h6.317l1.404 12.5h-7.02zm-1.404-22.916l-.702-9.723h4.211l1.404 9.723h-4.913zm-1.404-16.667v-6.945h3.51l.701 6.25-4.211.695zm0-11.806l1.403-4.166h2.808l-.702 4.166h-3.51zm3.509-8.333l3.51-3.472h2.808l-2.808 3.472h-3.51zm7.721-6.25l4.212-2.084h2.105l-4.211 2.778-2.106-.694zM74.595 26l2.807-1.389h2.106L76.701 26h-2.106zm7.018-2.778l2.808-1.389h2.106l-2.808 1.39h-2.106zm4.212-2.778l2.808-1.389h2.106l-2.808 1.39h-2.106zm3.51-2.083v-1.389h1.404v1.39h-1.404zm-.703-2.083l-1.404-.695h1.404l2.106.695h-2.106zm-2.806-2.084l-1.404-.694h1.404l1.404.694h-1.404zm-2.809-1.388l-1.404-.695h1.404l1.404.694h-1.404zM80.21 8.639l1.404-.695h.702l-.702.695H80.21z" fill="#F5F9FF"/><g clip-path="url(#clip2)"><ellipse cx="72.49" cy="29.472" rx="4.913" ry="4.861" fill="url(#paint2_linear)"/><path d="M71.787 21.833c-4.486 0-8.135 3.61-8.135 8.048 0 5.508 7.28 13.593 7.59 13.934.291.321.8.32 1.09 0 .31-.341 7.59-8.426 7.59-13.934 0-4.437-3.65-8.048-8.135-8.048zm0 12.098c-2.257 0-4.093-1.817-4.093-4.05 0-2.232 1.836-4.049 4.093-4.049 2.257 0 4.092 1.817 4.092 4.05 0 2.232-1.835 4.049-4.092 4.049z" fill="#D6516B"/></g><g clip-path="url(#clip3)"><ellipse cx="78.806" cy="9.333" rx="2.808" ry="2.778" fill="url(#paint3_linear)"/><path d="M78.806 5.167c-2.243 0-4.068 1.805-4.068 4.024 0 2.753 3.64 6.796 3.795 6.966.146.16.4.16.545 0 .155-.17 3.795-4.213 3.795-6.966 0-2.22-1.825-4.024-4.067-4.024zm0 6.048c-1.129 0-2.047-.908-2.047-2.024 0-1.117.918-2.025 2.047-2.025 1.128 0 2.046.908 2.046 2.025 0 1.116-.918 2.024-2.046 2.024z" fill="url(#paint4_linear)"/></g><defs><linearGradient id="paint0_linear" x1="91.442" y1="1" x2="91.442" y2="5.167" gradientUnits="userSpaceOnUse"><stop stop-color="#0A3D76"/><stop offset="1" stop-color="#0C53A3"/></linearGradient><linearGradient id="paint1_linear" x1="16.335" y1="63.5" x2="16.335" y2="78.778" gradientUnits="userSpaceOnUse"><stop stop-color="#0A3D76"/><stop offset="1" stop-color="#0C53A3"/></linearGradient><linearGradient id="paint2_linear" x1="72.49" y1="24.611" x2="72.49" y2="34.333" gradientUnits="userSpaceOnUse"><stop stop-color="#0A3D76"/><stop offset="1" stop-color="#0C53A3"/></linearGradient><linearGradient id="paint3_linear" x1="78.806" y1="6.556" x2="78.806" y2="12.111" gradientUnits="userSpaceOnUse"><stop stop-color="#0A3D76"/><stop offset="1" stop-color="#0C53A3"/></linearGradient><linearGradient id="paint4_linear" x1="82.622" y1="10.722" x2="74.977" y2="10.602" gradientUnits="userSpaceOnUse"><stop stop-color="#A62E41"/><stop offset="1" stop-color="#E13152"/></linearGradient><clipPath id="clip0"><path fill="#fff" transform="translate(88.633 1)" d="M0 0h5.615v5.556H0z"/></clipPath><clipPath id="clip1"><path fill="#fff" transform="translate(3 60.722)" d="M0 0h28.076v27.778H0z"/></clipPath><clipPath id="clip2"><path fill="#fff" transform="translate(60.557 21.833)" d="M0 0h22.461v22.222H0z"/></clipPath><clipPath id="clip3"><path fill="#fff" transform="translate(73.19 5.167)" d="M0 0h11.23v11.111H0z"/></clipPath><filter id="filter0_dd" x=".808" y=".861" width="108.192" height="104.75" filterUnits="userSpaceOnUse" color-interpolation-filters="sRGB"><feFlood flood-opacity="0" result="BackgroundImageFix"/><feColorMatrix in="SourceAlpha" values="0 0 0 0 0 0 0 0 0 0 0 0 0 0 0 0 0 0 127 0"/><feOffset dx="2" dy="2"/><feGaussianBlur stdDeviation="2"/><feColorMatrix values="0 0 0 0 0 0 0 0 0 0 0 0 0 0 0 0 0 0 0.3 0"/><feBlend in2="BackgroundImageFix" result="effect1_dropShadow"/><feColorMatrix in="SourceAlpha" values="0 0 0 0 0 0 0 0 0 0 0 0 0 0 0 0 0 0 127 0"/><feOffset dx="-1" dy="-1"/><feGaussianBlur stdDeviation="2"/><feColorMatrix values="0 0 0 0 0 0 0 0 0 0 0 0 0 0 0 0 0 0 0.2 0"/><feBlend in2="effect1_dropShadow" result="effect2_dropShadow"/><feBlend in="SourceGraphic" in2="effect2_dropShadow" result="shape"/></filter></defs></svg>
